**kern	**text
*clefG2	*
*k[f#c#g#]	*
*M4/4	*
*MM210	*
=1	=1
8r	.
4f#	す
[8f#	ね
16f#LL]	.
16f#J	ん
8f#J	た
8r	.
*clefF4	*
8B	て
=2	=2
8AL	も
8B	か
8A	げ
8BJ	わ
8AL	き
8BJ	え
*clefG2	*
8.dL	な
16dJk	い
=3	=3
8r	.
[8f#	か
16f#LL]	.
16f#J	ん
[8f#J	じょ
8f#L]	.
8f#J	ば
8r	.
8B	か
=4	=4
8AL	が
8BJ	つ
4a'	の
[8.g#L	て
32g#LL]	.
32g#JJJ	い
8.eL	く
16eJk	u息 R
=5	=5
8d	う
4f#	ず
[8f#	く
8f#L]	.
8f#J	ま
8r	.
*clefF4	*
8B	て
=6	=6
8AL	ひ
8B	と
8A	り
8BJ	え
8.dL	が
16dJk	い
8BL	て
8AJ	い
=7	=7
8A	た
[4.B	あ
2B_	.
=8	=8
8B]	.
4.A	a息 R
2r	.
=9	=9
8r	.
*clefG2	*
[8f#	え
16f#LL]	.
16f#J	ん
[8f#J	て
16f#LL]	.
16f#J	ん
8f#J	ちょ
8r	.
*clefF4	*
8B	か
=10	=10
*^	*
4A'	8r	さ
.	4.B'	か
32r	.	.
16.AKL	.	み
8BJ	.	ち
8AL	2r	の
8BJ	.	う
*clefG2	*	*
4d'	.	え
*v	*v	*
=11	=11
8BL	よ
[8f#J	ど
16f#LL]	.
16f#J	ん
[8f#J	だ
8f#L]	.
[8f#J	ぼ
16f#LL]	.
16f#J	く
8BJ	ら
=12	=12
8AL	が
8BJ	あ
[8.aL	る
32aLL]	.
32aJJJ	い
8.g#L	て
16g#Jk	い
8eL	た
8eJ	a息 R
=13	=13
8d	な
4f#	つ
[8f#	の
8f#L]	.
[8f#J	お
16f#LL]	.
16f#J	ん
*clefF4	*
8BJ	ど
=14	=14
8AL	が
8B	め
8A	に
8BJ	の
4d'	こ
8BL	て
8AJ	い
=15	=15
8A	た
4B	あ
[8B	a息 R
8B]	.
[4.B	か
=16	=16
8B]	.
*clefG2	*
[4.d	ま
8d]	.
4.a	わ
=17	=17
8.f#L	な
16f#Jk	い
8eL	で
[8dJ	よ
8dL]	.
8aJ	ど
8r	.
8f#	か
=18	=18
4e	え
8dL	い
8e'J	い
8dL	て
8e	く
8f#	れ
8f#J	e息 R
=19	=19
4B	き
8BL	み
8dJ	の
8f#	て
4e	を
8c#	は
=20	=20
4d'	ら
4B	た
4G#	a息 R
8r	.
8e	い
=21	=21
8aL	か
[8f#J	な
16f#LL]	.
16eJ	い
[8dJ	よ
8dL]	.
8dJ	o息 R
8.aL	な
16aJk	ん
=22	=22
8f#L	て
8eJ	い
8r	.
8f#	て
8r	.
8aL	き
8cc#	み
[8ddJ	わ
=23	=23
8dd]	.
[4b	ぼ
16bLL]	.
16bJJ	く
4a	の
8f#L	て
8eJ	を
=24	=24
8dL	つ
[8eJ	か
16eLL]	.
16eJ	ん
[8dJ	だ
4d]	.
8dL	a息 R
8aJ	う
=25	=25
8ddL	る
[8bJ	さ
16bLL]	.
16bJ	い
8aJ	な
8aL	a息 R
[8ddJ	ぼ
16ddLL]	.
16ddJ	く
8bJ	わ
=26	=26
8bL	ちょ
8b	o息 R
8a	と
8bJ	の
8aL	さ
8b	き
8dd	を
8ddJ	o息 R
=27	=27
4b	ふ
8aL	り
8bJ	か
8ddL	え
8b	ず
8a	に
8eJ	あ
=28	=28
8.eL	る
16eJk	い
4d	た
8dL	a息 R
8B	ほ
8d	ん
8f#J	と
=29	=29
4.e	の
8e	o息 R
8r	.
8dL	こ
8f#	こ
8bJ	ろ
=30	=30
2a	わ
[2a	あ
=31	=31
4a]	.
2B'	a息 R
4r	.
=32	=32
1r	.
=33	=33
8r	.
4f#	そ
[8f#	め
8f#L]	.
[8f#J	な
16f#LL]	.
16f#J	ん
*clefF4	*
8BJ	か
=34	=34
8AL	じゃ
8B	ま
8A	え
8BJ	わ
8AL	む
8BJ	け
*clefG2	*
8.dL	な
16dJk	い
=35	=35
8B	り
4f#	ゆ
[8f#	が
8f#L]	.
[8f#J	な
16f#LL]	.
16f#J	い
8BJ	か
=36	=36
8AL	ら
8BJ	く
4a'	さ
8.g#L	て
16g#Jk	い
8eL	く
8eJ	u息 R
=37	=37
8B	ま
4f#	き
[8f#	も
8f#L]	.
8f#J	ど
8r	.
*clefF4	*
8B	て
=38	=38
8AL	く
8B	れ
8A	れ
8BJ	ば
4d	い
8BL	の
8AJ	に
=39	=39
[1B	な
=40	=40
8BL]	.
8BJ	a息 R
4r	.
2r	.
=41	=41
8r	.
*clefG2	*
[8f#	な
16f#LL]	.
16f#J	ん
[8f#J	ね
16f#LL]	.
16f#J	ん
8f#J	た
8r	.
*clefF4	*
8B	て
=42	=42
8AL	も
8B	ぼ
8A	く
8BJ	わ
8AL	し
8BJ	な
*clefG2	*
8.dL	な
16dJk	い
=43	=43
8B	き
4f#	ぼ
[8f#	ろ
16f#LL]	.
16f#J	ん
8f#J	ば
8r	.
8B	か
=44	=44
8AL	を
8BJ	と
8.aL	な
16aJk	え
8.g#L	て
16g#Jk	い
8eL	る
[8eJ	u息 R
=45	=45
8e]	.
4f#	と
[8f#	ぜ
16f#LL]	.
16f#JJ	ん
4f#	きょ
*clefF4	*
8B	も
=46	=46
8AL	き
8B	み
8A	わ
8BJ	い
8.dL	な
16dJk	い
8BL	の
8AJ	に
=47	=47
4.B	さ
[8B	a息 R
8B]	.
[4.B	か
=48	=48
8B]	.
*clefG2	*
[4.d	ま
8d]	.
4.a	わ
=49	=49
8.f#L	な
16e#XJk	い
8enL	し
8aJ	ね
[8f#L	よ
32f#KL]	.
16.f#JJ	o息 R
8c#L	し
8aJ	ね
=50	=50
8f#L	よ
8e	お
8d	て
8eJ	て
8dL	く
8e	び
8f#	を
8f#J	o息 R
=51	=51
4B	に
8BL	ぎ
8dJ	い
8eL	て
8f#	た
*clefF4	*
8B	だ
8AJ	の
=52	=52
4B'	ろ
4d	て
4d	e息 R
*clefG2	*
8dL	な
8aJ	に
=53	=53
8f#L	も
8e	お
8d	で
8aJ	き
8.f#L	な
16eJk	い
8dL	で
8aJ	た
=54	=54
4f#	だ
4b	の
4cc#	の
4dd	と
=55	=55
[4b	じ
16bLL]	.
16bJ	ん
[8aJ	せ
8aL]	.
8f#	を
8e	む
8dJ	さ
=56	=56
4e'	ぼ
2d	た
8aL	な
8ddJ	つ
=57	=57
8bL	が
8b	a息 R
8a	ゆ
8ddJ	め
4b	を
8aL	み
8ddJ	せ
=58	=58
8.bL	る
16bJk	ん
8aL	な
8bJ	ら
8aL	き
8bJ	み
4dd	を
=59	=59
4b	つ
8aL	れ
8bJ	さ
8ddL	る
8b	ま
8a	え
8eJ	え
=60	=60
8.eL	な
16eJk	ん
4d	て
4d'	e息 R
8BL	て
8dJ	れ
=61	=61
8f#	か
4e	く
8d	し
8eL	し
8d	た
8e	ひ
8f#J	び
=62	=62
8a	が
4f#	く
8e	き
8f#L	を
8e	て
8f#	ら
8aJ	し
=63	=63
8dd	て
4ee	の
8dd	り
8eeL	を
8dd	こ
8ff#	が
8eeJ	し
=64	=64
8dd	て
[4.ff#	く
4.ff#]	.
8f#	u息 R
=65	=65
8r	.
4dd	じゅ
8aa	は
8r	.
[8ggn	さ
16ggLL]	.
16ggJ	い
8ee#XJ	に
=66	=66
4ggn'	な
4ee#X	た
8ccnL	しょ
8ddJ	お
8.ee#L	ね
16ee#Jk	ん
=67	=67
8ccn	ま
4dd	た
8aa	ど
8r	.
8ggn	か
4ee#X	で
=68	=68
8cccnL	ま
8ccc'J	a力 R
8.aaL	て
16aaJk	い
8.ggnL	た
16ggJk	ん
8ee#XL	だ
8ee#J	a息 R
=69	=69
8ccn	か
4dd	げ
[8aa	ぼ
8aaL]	.
8ggn	し
8aa	i息 R
8ee#XJ	に
=70	=70
4ee	じ
4ee#X	む
4ggn	す
8ee#L	が
8ddJ	た
=71	=71
8ccn	を
4.dd	お
4.ee#X	も
[8ggn	い
=72	=72
4gg]	.
[4aa	だ
8aa]	.
4ggn	し
[8ee#X	て
=73	=73
8ee#L]	.
[8ddJ	え
16ddLL]	.
16ddJ	ん
[8aaJ	て
16aaLL]	.
16aaJJ	ん
4ggn	か
8ee#X	に
=74	=74
8ggnL	す
8ggJ	ん
4ee#X'	だ
8ccnL	こ
8dd	お
8ee#	て
8ee#J	e息 R
=75	=75
8ccnL	わ
8ddJ	ら
8r	.
[8aa	て
16aaLL]	.
16aaJJ	い
4ggn	た
8ee#X	き
=76	=76
4cccn	み
4aa	が
8ggnL	きょ
8ee#X	お
8ee#	も
8g#J	o息 R
=77	=77
8ccn	あ
4dd	そ
[8aa	ぼ
8aaL]	.
8ggn	よ
8gg	o息 R
8ee#XJ	て
=78	=78
4ee'	い
4ee#X	て
4ggn	ゆ
8ee#L	ら
8ddJ	ゆ
=79	=79
8ccn	ら
4.a	ゆ
4.cc	れ
[8dd	た
=80	=80
1dd_	.
=81	=81
8dd]	.
4.ccn'	a息 R
2r	.
==	==
*-	*-
